svg/design/border_blank_line.svg

<?xml version="1.0" encoding="UTF-8"?>
<svg width="24px" height="24px" viewBox="0 0 24 24" version="1.1" xmlns="http://www.w3.org/2000/svg" xmlns:xlink="http://www.w3.org/1999/xlink">
    <title>border_blank_line</title>
    <g id="页面-1" stroke="none" stroke-width="1" fill="none" fill-rule="evenodd">
        <g id="Design" transform="translate(-912.000000, -96.000000)" fill-rule="nonzero">
            <g id="border_blank_line" transform="translate(912.000000, 96.000000)">
                 <path d="M24,0 L24,24 L0,24 L0,0 L24,0 Z M12.5934901,23.257841 L12.5819402,23.2595131 L12.5108777,23.2950439 L12.4918791,23.2987469 L12.4918791,23.2987469 L12.4767152,23.2950439 L12.4056548,23.2595131 C12.3958229,23.2563662 12.3870493,23.2590235 12.3821421,23.2649074 L12.3780323,23.275831 L12.360941,23.7031097 L12.3658947,23.7234994 L12.3769048,23.7357139 L12.4804777,23.8096931 L12.4953491,23.8136134 L12.4953491,23.8136134 L12.5071152,23.8096931 L12.6106902,23.7357139 L12.6232938,23.7196733 L12.6232938,23.7196733 L12.6266527,23.7031097 L12.609561,23.275831 C12.6075724,23.2657013 12.6010112,23.2592993 12.5934901,23.257841 L12.5934901,23.257841 Z M12.8583906,23.1452862 L12.8445485,23.1473072 L12.6598443,23.2396597 L12.6498822,23.2499052 L12.6498822,23.2499052 L12.6471943,23.2611114 L12.6650943,23.6906389 L12.6699349,23.7034178 L12.6699349,23.7034178 L12.678386,23.7104931 L12.8793402,23.8032389 C12.8914285,23.8068999 12.9022333,23.8029875 12.9078286,23.7952264 L12.9118235,23.7811639 L12.8776777,23.1665331 C12.8752882,23.1545897 12.8674102,23.1470016 12.8583906,23.1452862 L12.8583906,23.1452862 Z M12.1430473,23.1473072 C12.1332178,23.1423925 12.1221763,23.1452606 12.1156365,23.1525954 L12.1099173,23.1665331 L12.0757714,23.7811639 C12.0751323,23.7926639 12.0828099,23.8018602 12.0926481,23.8045676 L12.108256,23.8032389 L12.3092106,23.7104931 L12.3186497,23.7024347 L12.3186497,23.7024347 L12.3225043,23.6906389 L12.340401,23.2611114 L12.337245,23.2485176 L12.337245,23.2485176 L12.3277531,23.2396597 L12.1430473,23.1473072 Z" id="MingCute" fill-rule="nonzero"></path>
                <path d="M4,19 C4.55227475,19 5,19.44775 5,20 C5,20.55225 4.55227475,21 4,21 C3.44772525,21 3,20.55225 3,20 C3,19.44775 3.44772525,19 4,19 Z M8,19 C8.55227475,19 9,19.44775 9,20 C9,20.55225 8.55227475,21 8,21 C7.44772525,21 7,20.55225 7,20 C7,19.44775 7.44772525,19 8,19 Z M12,19 C12.5522424,19 13,19.4477576 13,20 C13,20.5522424 12.5522424,21 12,21 C11.4477576,21 11,20.5522424 11,20 C11,19.4477576 11.4477576,19 12,19 Z M16,19 C16.5522424,19 17,19.4477576 17,20 C17,20.5522424 16.5522424,21 16,21 C15.4477576,21 15,20.5522424 15,20 C15,19.4477576 15.4477576,19 16,19 Z M20,19 C20.5522424,19 21,19.4477576 21,20 C21,20.5522424 20.5522424,21 20,21 C19.4477576,21 19,20.5522424 19,20 C19,19.4477576 19.4477576,19 20,19 Z M4,15 C4.55227475,15 5,15.44775 5,16 C5,16.55225 4.55227475,17 4,17 C3.44772525,17 3,16.55225 3,16 C3,15.44775 3.44772525,15 4,15 Z M12,15 C12.5522424,15 13,15.4477576 13,16 C13,16.5522424 12.5522424,17 12,17 C11.4477576,17 11,16.5522424 11,16 C11,15.4477576 11.4477576,15 12,15 Z M20,15 C20.5522424,15 21,15.4477576 21,16 C21,16.5522424 20.5522424,17 20,17 C19.4477576,17 19,16.5522424 19,16 C19,15.4477576 19.4477576,15 20,15 Z M4,11 C4.55227475,11 5,11.44775 5,12 C5,12.55225 4.55227475,13 4,13 C3.44772525,13 3,12.55225 3,12 C3,11.44775 3.44772525,11 4,11 Z M12,11 C12.5522424,11 13,11.4477576 13,12 C13,12.5522424 12.5522424,13 12,13 C11.4477576,13 11,12.5522424 11,12 C11,11.4477576 11.4477576,11 12,11 Z M20,11 C20.5522424,11 21,11.4477576 21,12 C21,12.5522424 20.5522424,13 20,13 C19.4477576,13 19,12.5522424 19,12 C19,11.4477576 19.4477576,11 20,11 Z M8,11 C8.55227475,11 9,11.44775 9,12 C9,12.55225 8.55227475,13 8,13 C7.44772525,13 7,12.55225 7,12 C7,11.44775 7.44772525,11 8,11 Z M16,11 C16.5522424,11 17,11.4477576 17,12 C17,12.5522424 16.5522424,13 16,13 C15.4477576,13 15,12.5522424 15,12 C15,11.4477576 15.4477576,11 16,11 Z M4,7 C4.55228237,7 5,7.44771763 5,8 C5,8.55228237 4.55228237,9 4,9 C3.44771763,9 3,8.55228237 3,8 C3,7.44771763 3.44771763,7 4,7 Z M12,7 C12.55225,7 13,7.44772525 13,8 C13,8.55227475 12.55225,9 12,9 C11.44775,9 11,8.55227475 11,8 C11,7.44772525 11.44775,7 12,7 Z M20,7 C20.55225,7 21,7.44772525 21,8 C21,8.55227475 20.55225,9 20,9 C19.44775,9 19,8.55227475 19,8 C19,7.44772525 19.44775,7 20,7 Z M4,3 C4.55228237,3 5,3.44771763 5,4 C5,4.55228237 4.55228237,5 4,5 C3.44771763,5 3,4.55228237 3,4 C3,3.44771763 3.44771763,3 4,3 Z M8,3 C8.55228237,3 9,3.44771763 9,4 C9,4.55228237 8.55228237,5 8,5 C7.44771763,5 7,4.55228237 7,4 C7,3.44771763 7.44771763,3 8,3 Z M12,3 C12.55225,3 13,3.44772525 13,4 C13,4.55227475 12.55225,5 12,5 C11.44775,5 11,4.55227475 11,4 C11,3.44772525 11.44775,3 12,3 Z M16,3 C16.55225,3 17,3.44772525 17,4 C17,4.55227475 16.55225,5 16,5 C15.44775,5 15,4.55227475 15,4 C15,3.44772525 15.44775,3 16,3 Z M20,3 C20.55225,3 21,3.44772525 21,4 C21,4.55227475 20.55225,5 20,5 C19.44775,5 19,4.55227475 19,4 C19,3.44772525 19.44775,3 20,3 Z" id="形状" fill="#09244B"></path>
            </g>
        </g>
    </g>
</svg>

<svg xmlns="http://www.w3.org/2000/svg" width="24" height="24"><g fill="none" fill-rule="nonzero"><path d="M24 0v24H0V0h24ZM12.593 23.258l-.011.002-.071.035-.02.004-.014-.004-.071-.035c-.01-.004-.019-.001-.024.005l-.004.01-.017.428.005.02.01.013.104.074.015.004.012-.004.104-.074.012-.016.004-.017-.017-.427c-.002-.01-.009-.017-.017-.018Zm.265-.113-.013.002-.185.093-.01.01-.003.011.018.43.005.012.008.007.201.093c.012.004.023 0 .029-.008l.004-.014-.034-.614c-.003-.012-.01-.02-.02-.022Zm-.715.002a.023.023 0 0 0-.027.006l-.006.014-.034.614c0 .012.007.02.017.024l.015-.002.201-.093.01-.008.004-.011.017-.43-.003-.012-.01-.01-.184-.092Z"/><path fill="#09244B" d="M4 19a1 1 0 1 1 0 2 1 1 0 0 1 0-2Zm4 0a1 1 0 1 1 0 2 1 1 0 0 1 0-2Zm4 0a1 1 0 1 1 0 2 1 1 0 0 1 0-2Zm4 0a1 1 0 1 1 0 2 1 1 0 0 1 0-2Zm4 0a1 1 0 1 1 0 2 1 1 0 0 1 0-2ZM4 15a1 1 0 1 1 0 2 1 1 0 0 1 0-2Zm8 0a1 1 0 1 1 0 2 1 1 0 0 1 0-2Zm8 0a1 1 0 1 1 0 2 1 1 0 0 1 0-2ZM4 11a1 1 0 1 1 0 2 1 1 0 0 1 0-2Zm8 0a1 1 0 1 1 0 2 1 1 0 0 1 0-2Zm8 0a1 1 0 1 1 0 2 1 1 0 0 1 0-2ZM8 11a1 1 0 1 1 0 2 1 1 0 0 1 0-2Zm8 0a1 1 0 1 1 0 2 1 1 0 0 1 0-2ZM4 7a1 1 0 1 1 0 2 1 1 0 0 1 0-2Zm8 0a1 1 0 1 1 0 2 1 1 0 0 1 0-2Zm8 0a1 1 0 1 1 0 2 1 1 0 0 1 0-2ZM4 3a1 1 0 1 1 0 2 1 1 0 0 1 0-2Zm4 0a1 1 0 1 1 0 2 1 1 0 0 1 0-2Zm4 0a1 1 0 1 1 0 2 1 1 0 0 1 0-2Zm4 0a1 1 0 1 1 0 2 1 1 0 0 1 0-2Zm4 0a1 1 0 1 1 0 2 1 1 0 0 1 0-2Z"/></g></svg>
